build/category/ChipOutline.svg

<svg xmlns="http://www.w3.org/2000/svg" fill="none" viewBox="0 0 24 24" focusable="false"><path d="M0 0H24V24H0z"/><path fill="#74767B" fill-rule="evenodd" d="M11.3501 6.0001L11.3501 3.0001C11.3501 2.64111 11.6411 2.3501 12.0001 2.3501C12.3591 2.3501 12.6501 2.64111 12.6501 3.0001L12.6501 6.0001L14.3501 6.00019L14.3501 4.00015C14.3501 3.64117 14.6411 3.35015 15.0001 3.35015C15.3591 3.35015 15.6501 3.64117 15.6501 4.00015L15.6501 6.07081C16.7852 6.32155 17.6788 7.21519 17.9295 8.35029L20.0001 8.35029C20.3591 8.35029 20.6501 8.64131 20.6501 9.00029C20.6501 9.35928 20.3591 9.65029 20.0001 9.65029L18.0001 9.65029L18.0001 11.3503L21.0001 11.3503C21.3591 11.3503 21.6501 11.6413 21.6501 12.0003C21.6501 12.3593 21.3591 12.6503 21.0001 12.6503L18.0001 12.6503L18.0001 14.3503L20.0001 14.3503C20.3591 14.3503 20.6501 14.6413 20.6501 15.0003C20.6501 15.3593 20.3591 15.6503 20.0001 15.6503L17.9294 15.6503C17.6787 16.7853 16.7851 17.6789 15.6501 17.9296L15.6501 20.0001C15.6501 20.3591 15.3591 20.6501 15.0001 20.6501C14.6411 20.6501 14.3501 20.3591 14.3501 20.0001L14.3501 18.0002L12.6501 18.0002L12.6501 21.0001C12.6501 21.3591 12.3591 21.6501 12.0001 21.6501C11.6411 21.6501 11.3501 21.3591 11.3501 21.0001L11.3501 18.0002L9.6501 18.0002L9.6501 20.0001C9.6501 20.3591 9.35908 20.6501 9.0001 20.6501C8.64111 20.6501 8.3501 20.3591 8.3501 20.0001L8.3501 17.9296C7.21506 17.6789 6.32146 16.7853 6.0707 15.6503L4.00008 15.6503C3.6411 15.6503 3.35008 15.3593 3.35008 15.0003C3.35008 14.6413 3.6411 14.3503 4.00008 14.3503L6.00007 14.3503L6.00007 12.6503L3.0001 12.6503C2.64111 12.6503 2.3501 12.3593 2.3501 12.0003C2.3501 11.6413 2.64111 11.3503 3.0001 11.3503L6.00007 11.3503L6.00007 9.65029L4.00008 9.65029C3.6411 9.65029 3.35008 9.35928 3.35008 9.00029C3.35008 8.64131 3.6411 8.35029 4.00008 8.35029L6.07066 8.35029C6.32136 7.21518 7.21499 6.32153 8.3501 6.0708L8.3501 4.00015C8.3501 3.64117 8.64111 3.35015 9.0001 3.35015C9.35908 3.35015 9.6501 3.64117 9.6501 4.00015L9.6501 6.00019L11.3501 6.0001ZM16.7001 14.8954C16.6945 14.9296 16.6917 14.9646 16.6917 15.0003C16.6917 15.0306 16.6937 15.0605 16.6978 15.0897C16.6512 15.987 15.9089 16.7002 15.0001 16.7002L9.00007 16.7002C8.06119 16.7002 7.30007 15.9391 7.30007 15.0002L7.30007 9.0002C7.30007 8.06131 8.06119 7.30019 9.00007 7.30019L15.0001 7.30019C15.939 7.30019 16.7001 8.06131 16.7001 9.00019L16.7001 14.8954ZM14.4001 15.0002C14.7314 15.0002 15.0001 14.7316 15.0001 14.4002L15.0001 9.60014C15.0001 9.26877 14.7314 9.00014 14.4001 9.00014L9.60002 9.00014C9.26865 9.00014 9.00002 9.26877 9.00002 9.60014L9.00002 14.4002C9.00002 14.7316 9.26865 15.0002 9.60002 15.0002L14.4001 15.0002ZM13.7001 10.6001C13.7001 10.4345 13.5658 10.3001 13.4001 10.3001L10.6 10.3001C10.4343 10.3001 10.3 10.4345 10.3 10.6001L10.3 13.4002C10.3 13.5659 10.4343 13.7002 10.6 13.7002L13.4001 13.7002C13.5658 13.7002 13.7001 13.5659 13.7001 13.4002L13.7001 10.6001Z"/></svg>

<svg xmlns="http://www.w3.org/2000/svg" fill="none" viewBox="0 0 24 24" focusable="false"><path fill="#74767B" fill-rule="evenodd" d="M11.35 6V3c0-.36.29-.65.65-.65.35 0 .64.29.64.65v3h1.71V4c0-.36.29-.65.65-.65.35 0 .64.29.64.65v2.07a2.99 2.99 0 0 1 2.28 2.28H20c.35 0 .64.29.64.65 0 .35-.29.65-.64.65h-2v1.7h3c.35 0 .64.29.64.65 0 .35-.29.65-.64.65h-3v1.7h2c.35 0 .64.29.64.65 0 .35-.29.65-.64.65h-2.08a2.99 2.99 0 0 1-2.28 2.27V20c0 .35-.29.65-.64.65-.36 0-.65-.3-.65-.65v-2h-1.71v3c0 .35-.29.65-.64.65-.36 0-.65-.3-.65-.65v-3H9.64v2c0 .35-.29.65-.64.65-.36 0-.65-.3-.65-.65v-2.08a2.99 2.99 0 0 1-2.28-2.27H4c-.36 0-.65-.3-.65-.65 0-.36.29-.65.65-.65h2v-1.7H3c-.36 0-.65-.3-.65-.65 0-.36.29-.65.65-.65h3v-1.7H4c-.36 0-.65-.3-.65-.65 0-.36.29-.65.65-.65h2.07a2.99 2.99 0 0 1 2.28-2.28V4c0-.36.29-.65.65-.65.35 0 .64.29.64.65v2zm5.35 8.89c-.01.03-.01.07-.01.11v.08A1.7 1.7 0 0 1 15 16.7H9c-.94 0-1.7-.77-1.7-1.7V9c0-.94.76-1.7 1.7-1.7h6c.93 0 1.7.76 1.7 1.7zM15 14.4c0 .33-.27.6-.61.6H9.6c-.34 0-.6-.27-.6-.6V9.6c0-.34.26-.6.6-.6h4.79c.34 0 .61.26.61.6zm-1.61-4.1c.17 0 .31.13.31.3v2.8c0 .16-.14.3-.31.3H10.6a.31.31 0 0 1-.31-.3v-2.8c0-.17.14-.3.31-.3z"/></svg>
